!!!COM: Corelli, Arcangelo
!!!OPR: Church Sonata in D Major
!!!ONM: Opus 5, No. 1
!!!OTL: Adagio 
!!!OMV: 1e
!!!YOR:
!!!EED: Frances Bennion
!!!ENC: Frances Bennion
!!!CDT: 1653/2/17/-1713/1/8/
!!!OCY: Italia
!!!YEC: Copyright (c) 1994, 2000 Center for Computer Assisted Research in the Humanities
!!!YEM: Rights to all derivative editions reserved.
!!!YEM: Refer to licensing agreement for further details.
!!!YEN: United States of America
**kern	**kern	**kern	**kern
*k[f#c#]	*k[f#c#]	*k[f#c#]	*k[f#c#]
*D:	*D:	*D:	*D:
*clefG	*clefG	*clefG	*clefC
*M4/4	*M4/4	*M4/4	*M4/4
*tb32	*tb32	*tb32	*tb32
=1	=1	=1	=1
1r	1r	1r	1r
=2	=2	=2	=2
1r	1r	1r	1r
=3	=3	=3	=3
1r	1r	1r	1r
=4	=4	=4	=4
1r	1r	1r	1r
=5	=5	=5	=5
1r	1r	1r	1r
=6	=6	=6	=6
1r	1r	1r	1r
=7	=7	=7	=7
1r	1r	1r	1r
=8	=8	=8	=8
1r	1r	1r	1r
=9	=9	=9	=9
1r	1r	1r	1r
=10	=10	=10	=10
1r	1r	1r	1r
=11	=11	=11	=11
1r	1r	1r	1r
=12	=12	=12	=12
1r	1r	1r	1r
=13	=13	=13	=13
1r	1r	1r	1r
=14	=14	=14	=14
1r	1r	1r	1r
=15	=15	=15	=15
1r	1r	1r	1r
=16	=16	=16	=16
1r	1r	1r	1r
=17	=17	=17	=17
1r	1r	1r	1r
=18	=18	=18	=18
1r	1r	1r	1r
=19	=19	=19	=19
1r	1r	1r	1r
=20	=20	=20	=20
1r	1r	1r	1r
=21	=21	=21	=21
1r	1r	1r	1r
=22	=22	=22	=22
1r	1r	1r	1r
=23	=23	=23	=23
1r	1r	1r	1r
=24	=24	=24	=24
4d#	1r	1r	4AA
2r	.	.	2r
8b	.	.	4GG#
8e	.	.	.
=25	=25	=25	=25
8a	1r	1r	4FF#
16b	.	.	.
16cc#	.	.	.
8.b	.	.	4BB
16a	.	.	.
4g#	.	.	4E
8ee	.	.	4C#
8a	.	.	.
=26	=26	=26	=26
8dd	1r	1r	4BB
16ee	.	.	.
16ff#	.	.	.
8.ee	.	.	4E
16dd	.	.	.
4.cc#	.	.	4AA
.	.	.	[4A
8ff#	.	.	.
=27	=27	=27	=27
8dd#	1r	1r	4A]
8b	.	.	.
2ee	.	.	8G#
.	.	.	8E
.	.	.	8A
.	.	.	8F#
4dd#	.	.	8B
.	.	.	8BB
=28	=28	=28	=28
4.ee	1r	1r	8E
.	.	.	8F#
.	.	.	8G#
8ee	.	.	8E
8ee	.	.	4.F#
8a	.	.	.
8dd	.	.	.
8dd	.	.	8G#
=29	=29	=29	=29
8dd	1r	1r	8A
8cc#	.	.	8B
8r	.	.	8c#
8aa	.	.	8A
8aa	.	.	4.B
8dd	.	.	.
8gg	.	.	.
8gg	.	.	8c#
=30	=30	=30	=30
8gg	1r	1r	8d
8ff#	.	.	8D
8r	.	.	8F#
8ff#	.	.	8D
8b	.	.	4G
16cc#	.	.	.
16dd	.	.	.
8.ee	.	.	4G#
16dd	.	.	.
=31	=31	=31	=31
8cc#	1r	1r	4.A
8a	.	.	.
4.aa	.	.	.
.	.	.	8F#
.	.	.	4BB
8dd	.	.	.
[4gg	.	.	8r
.	.	.	8E
=32	=32	=32	=32
8gg]	1r	1r	4AA
8cc#	.	.	.
4ff#	.	.	8r
.	.	.	8D
8b	.	.	8G
8cc#	.	.	8A
[4dd	.	.	8B
.	.	.	8F#
=33	=33	=33	=33
4dd]	1r	1r	8G
.	.	.	8E
4cc#	.	.	8A
.	.	.	8AA
4dd	.	.	8D
.	.	.	8E
[4a	.	.	8F#
.	.	.	8D
=34	=34	=34	=34
8a]	1r	1r	4G
8d	.	.	.
8g	.	.	2GG
8b	.	.	.
8c#	.	.	.
8A	.	.	.
[4d	.	.	8FF#
.	.	.	8GG
=35	=35	=35	=35
4d]	1r	1r	2AA
4c#	.	.	.
2d	.	.	2DD
=36	=36	=36	=36
4r	1r	1r	1r
4ff#	.	.	.
4gg	.	.	.
4aa	.	.	.
=37	=37	=37	=37
4dd	1r	2.r	1r
16bb	.	.	.
16aa	.	.	.
16gg	.	.	.
16ff#	.	.	.
8ee	.	.	.
16ff#	.	.	.
16gg#	.	.	.
[4aa	.	4cc#	.
=38	=38	=38	=38
4aa]	1r	4dd	1r
4gg#	.	4ee	.
4cc#	.	4a	.
16ff#	.	4r	.
16ee	.	.	.
16dd	.	.	.
16cc#	.	.	.
=39	=39	=39	=39
8b	1r	4g	2.r
16cc#	.	.	.
16dd	.	.	.
8ee	.	4r	.
8dd	.	.	.
8cc#	.	4a	.
8a	.	.	.
[4dd	.	4f#	4F#
=40	=40	=40	=40
4dd]	1r	2e	4G
4cc#	.	.	4A
4dd	.	4d	4D
4ff#	.	4dd	16B
.	.	.	16A
.	.	.	16G
.	.	.	16F#
=41	=41	=41	=41
4dd 4gg	1r	4e	8E
.	.	.	16F#
.	.	.	16G
4cc#	.	4e	8A
.	.	.	8AA
4ff# 4cc#	.	4d	4D
4b	.	4d	[4d
=42	=42	=42	=42
4ee	1r	4g#	4d]
4ee 4cc#	.	4a	4c#
4dd 4ff#	.	4a	4B
4ee 4b	.	4g#	4E
=43	=43	=43	=43
4ee 4cc#	1r	4a	4AA
16ff#	.	2.r	2A
16ee	.	.	.
16dd	.	.	.
16cc#	.	.	.
8b	.	.	.
16cc#	.	.	.
16dd	.	.	.
8ee	.	.	[4G
8dd	.	.	.
=44	=44	=44	=44
8cc#	1r	4a	4G]
8a	.	.	.
4a 4f#	.	4d	4F#
4g 4b	.	4d	4E
4e 4a	.	4c#	4AA
=45	=45	=45	=45
4a 4f#	1r	4d	4D
16b	.	2r	2d
16a	.	.	.
16g	.	.	.
16f#	.	.	.
8e	.	.	.
16f#	.	.	.
16g#	.	.	.
8a	.	8r	4c#
8a	.	8c#	.
=46	=46	=46	=46
4a	1r	2B	4d
4g#	.	.	4e
4a	.	4c#	4A
[4aa	.	4a	16f#
.	.	.	16e
.	.	.	16d
.	.	.	16c#
=47	=47	=47	=47
4aa]	1r	2b	8B
.	.	.	16c#
.	.	.	16d
2gg	.	.	8e
.	.	.	8d
.	.	4a	8c#
.	.	.	8A
4ff#	.	[4dd	4F#
=48	=48	=48	=48
2ee	1r	4dd]	4G
.	.	4cc#	4A
4ff#	.	4dd	4D
[4b	.	4r	16G
.	.	.	16F#
.	.	.	16E
.	.	.	16D
=49	=49	=49	=49
4b]	4e	4c#	8C#
.	.	.	16D
.	.	.	16E
2a	4r	4r	8F#
.	.	.	8FF#
.	8d	4B	8BB
.	16e	.	16C#
.	16f#	.	16D
8g	4r	8r	8E
8b	.	8g	8EE
=50	=50	=50	=50
8cc#	1r	4g	4AA
8a	.	.	.
2dd	.	4f#	4FF#
.	.	2e	4GG
4cc#	.	.	4AA
=51	=51	=51	=51
4dd	1r	4f#	4DD
4b 4d	.	4G	2GG
4a 4e	.	4c#	.
4a 4f#	.	4d	8FF#
.	.	.	8GG
=52	=52	=52	=52
2e	1r	2A	2AA
4d	.	4d	4DD
8ff#	.	4r	4d
8dd	.	.	.
=53	=53	=53	=53
8gg	1r	2.r	4B
16ff#	.	.	.
16gg	.	.	.
8ee	.	.	4c#
8aa	.	.	.
8ff#	.	.	4d
8dd	.	.	.
8ee	.	8cc#	4A
8cc#	.	8a	.
=54	=54	=54	=54
8dd	1r	4f#	4B
16cc#	.	.	.
16dd	.	.	.
8b	.	4g#	4E
8ee	.	.	.
4cc#	.	8a	4A
.	.	8A	.
[4aa	.	8cc#	4r
.	.	8a	.
=55	=55	=55	=55
8aa]	1r	4b	2.r
16gg	.	.	.
16ff#	.	.	.
8gg	.	8r	.
8gg	.	8cc#	.
4gg	.	8dd	.
.	.	8a	.
4ff#	.	[4dd	8F#
.	.	.	8D
=56	=56	=56	=56
2ee	1r	4dd]	8G
.	.	.	16F#
.	.	.	16G
.	.	4cc#	8E
.	.	.	8A
8ff#	.	4dd	8F#
8aa	.	.	8D
8ddd	.	8r	8r
8ddd	.	8ff#	8d
=57	=57	=57	=57
8ddd	1r	4ee	4G#
16ccc#	.	.	.
16bb	.	.	.
8ccc#	.	8r	4A#
8ccc#	.	8ee	.
8ccc#	.	8dd	4B
8bb	.	8dd	.
8bb	.	8dd	4BB
8bb	.	8dd	.
=58	=58	=58	=58
8bb	1r	8cc#	2F#
8aa	.	8cc#	.
8aa	.	8cc#	.
8aa	.	16b	.
.	.	16a	.
8aa	.	8b	2G
8gg	.	8b	.
8gg	.	8b	.
8gg	.	8b	.
=59	=59	=59	=59
8gg	1r	8a	2D
16ff#	.	16dd	.
16ee	.	16cc#	.
8ff#	.	8dd	.
8bb	.	8dd	.
8gg#	.	4dd	4E
8ee	.	.	.
[4aa	.	4cc#	8C#
.	.	.	8AA
=60	=60	=60	=60
4aa]	1r	2b	8D
.	.	.	16C#
.	.	.	16D
4gg#	.	.	8BB
.	.	.	8E
4aa	.	4a	8C#
.	.	.	8AA
4r	.	8cc#	[4A
.	.	8a	.
=61	=61	=61	=61
2.r	1r	8dd	4A]
.	.	16cc#	.
.	.	16dd	.
.	.	8b	2G
.	.	8ee	.
.	.	8cc#	.
.	.	8a	.
8a	.	8f#	4F#
8f#	.	8d	.
=62	=62	=62	=62
8g	1r	4B	4E
16f#	.	.	.
16g	.	.	.
8e	.	4c#	4AA
8a	.	.	.
8a	.	8f#	8D
8f#	.	8d	8E
[4dd	.	4f#	8F#
.	.	.	8D
=63	=63	=63	=63
4dd]	1r	2e	8A
.	.	.	8B
2cc#	.	.	8c#
.	.	.	8A#
.	.	2d	8B
.	.	.	8BB
4b	.	.	8D
.	.	.	8BB
=64	=64	=64	=64
4cc#	1r	4a#	8F#
.	.	.	8E
2ff#	.	4r	8F#
.	.	.	8D
.	.	4g	8G
.	.	.	8F#
[4ee	.	4r	8G
.	.	.	8E
=65	=65	=65	=65
4ee]	1r	4f#	8F#
.	.	.	8E
2b	.	4d	8D
.	.	.	8BB
.	.	4c#	8E
.	.	.	8C#
4a#	.	4r	8F#
.	.	.	8FF#
=66	=66	=66	=66
2b 2f#	1r	2d	8BB
.	.	.	8C#
.	.	.	8D
.	.	.	8BB
2e 2b	.	2G#	8E
.	.	.	8F#
.	.	.	8G#
.	.	.	8E
=67	=67	=67	=67
2cc# 2e	1r	2A	8AA
.	.	.	8BB
.	.	.	8C#
.	.	.	8AA
2cc# 2f#	.	2A#	8F#
.	.	.	8G#
.	.	.	8A#
.	.	.	8F#
=68	=68	=68	=68
2dd 2f#	1r	2B	8BB
.	.	.	8C#
.	.	.	8D
.	.	.	8BB
2ee 2b	.	2g#	8E
.	.	.	8F#
.	.	.	8G#
.	.	.	8E
=69	=69	=69	=69
2ee 2cc#	1r	2a	8A
.	.	.	8B
.	.	.	8c#
.	.	.	8A
2ff# 2cc#	.	2a#	8F#
.	.	.	8G#
.	.	.	8A#
.	.	.	8F#
=70	=70	=70	=70
2dd 2ff#	1r	2f# 2B	8B
.	.	.	8c#
.	.	.	8d
.	.	.	8B
2cc# 2gg#	.	2e#	8c#
.	.	.	8C#
.	.	.	8E#
.	.	.	8C#
=71	=71	=71	=71
2aa 2cc#	1r	2f#	8F#
.	.	.	8G#
.	.	.	8A
.	.	.	8F#
2b 2aa	.	2d#	8B
.	.	.	8BB
.	.	.	8D#
.	.	.	8BB
=72	=72	=72	=72
2gg 2b	1r	2e	8E
.	.	.	8F#
.	.	.	8G
.	.	.	8E
2cc# 2gg	.	2e 2A	8A
.	.	.	8AA
.	.	.	8C#
.	.	.	8AA
=73	=73	=73	=73
2ff# 2a	1r	2d	8D
.	.	.	8E
.	.	.	8F#
.	.	.	8D
4ff# 4b	.	4g	8G
.	.	.	8A
4ee 4b	.	4g	8B
.	.	.	8G
=74	=74	=74	=74
4cc# 4ee	1r	4g	8A
.	.	.	8G
4ff#	.	4f#	8F#
.	.	.	8D
4ee	.	4g	8G
.	.	.	8E
4ee 4cc#	.	4a	8A
.	.	.	8AA
=75	=75	=75	=75
4ff# 4a	1r	4d	4D
4b 4f#	.	4d	8r
.	.	.	8D
4b 4e	.	4c#	4C#
4a	.	4c#	8r
.	.	.	8F#
=76	=76	=76	=76
4dd 4a	1r	4B	4BB
4b 4g	.	4B	8r
.	.	.	8E
4cc# 4g	.	4A	4AA
4dd 4f#	.	4A	8r
.	.	.	8F#
=77	=77	=77	=77
4dd 4e	1r	4G	8G
.	.	.	8E
4cc# 4e	.	4A	8A
.	.	.	8AA
16d	.	2r	4D
16aa	.	.	.
16ddd	.	.	.
16ccc#	.	.	.
16ddd	.	.	4F#
16ff#	.	.	.
16ee	.	.	.
16dd	.	.	.
=78	=78	=78	=78
16ee	1r	1r	4G
16ddd	.	.	.
16ccc#	.	.	.
16bb	.	.	.
16ccc#	.	.	4A
16ee	.	.	.
16ff#	.	.	.
16ee	.	.	.
16dd	.	.	4D
16ee	.	.	.
16aa	.	.	.
16gg#	.	.	.
16aa	.	.	4c#
16cc#	.	.	.
16b	.	.	.
16a	.	.	.
=79	=79	=79	=79
16b	1r	1r	4d
16aa	.	.	.
16gg#	.	.	.
16ff#	.	.	.
16gg#	.	.	4e
16b	.	.	.
16cc#	.	.	.
16b	.	.	.
16a	.	.	4A
16ee	.	.	.
16ff#	.	.	.
16gg#	.	.	.
16aa	.	.	[4A
16cc#	.	.	.
16b	.	.	.
16a	.	.	.
=80	=80	=80	=80
16b	1r	1r	4A]
16dd	.	.	.
16ee	.	.	.
16ff#	.	.	.
16gg	.	.	2G
16b	.	.	.
16cc#	.	.	.
16dd	.	.	.
16cc#	.	.	.
16a	.	.	.
16dd	.	.	.
16cc#	.	.	.
16dd	.	.	4FF#
16f#	.	.	.
16e	.	.	.
16d	.	.	.
=81	=81	=81	=81
16e	1r	1r	4GG
16dd	.	.	.
16cc#	.	.	.
16b	.	.	.
16cc#	.	.	4AA
16e	.	.	.
16f#	.	.	.
16e	.	.	.
16d	.	.	4DD
16ff#	.	.	.
16aa	.	.	.
16ff#	.	.	.
16dd	.	.	4r
16ff#	.	.	.
16aa	.	.	.
16ff#	.	.	.
=82	=82	=82	=82
16cc#	1r	1r	4A
16ee	.	.	.
16aa	.	.	.
16ee	.	.	.
16cc#	.	.	4AA
16ee	.	.	.
16aa	.	.	.
16ee	.	.	.
16dd	.	.	4D
16ff#	.	.	.
16aa	.	.	.
16ff#	.	.	.
16dd	.	.	4r
16ff#	.	.	.
16aa	.	.	.
16ff#	.	.	.
=83	=83	=83	=83
16g#	1r	1r	4e
16b	.	.	.
16ee	.	.	.
16b	.	.	.
16g#	.	.	4E
16b	.	.	.
16ee	.	.	.
16b	.	.	.
16a	.	.	4A
16cc#	.	.	.
16ee	.	.	.
16cc#	.	.	.
16a	.	.	4r
16cc#	.	.	.
16ee	.	.	.
16cc#	.	.	.
=84	=84	=84	=84
16e#	1r	1r	4c#
16g#	.	.	.
16cc#	.	.	.
16g#	.	.	.
16e#	.	.	4C#
16g#	.	.	.
16cc#	.	.	.
16g#	.	.	.
16f#	.	.	4F#
16a	.	.	.
16cc#	.	.	.
16a	.	.	.
16f#	.	.	4r
16a	.	.	.
16cc#	.	.	.
16a	.	.	.
=85	=85	=85	=85
16d#	1r	1r	4B
16f#	.	.	.
16b	.	.	.
16f#	.	.	.
16d#	.	.	4BB
16f#	.	.	.
16b	.	.	.
16f#	.	.	.
16e	.	.	4E
16g#	.	.	.
16b	.	.	.
16g#	.	.	.
16e	.	.	4r
16g#	.	.	.
16b	.	.	.
16g#	.	.	.
=86	=86	=86	=86
16c#	1r	1r	4A
16e	.	.	.
16a	.	.	.
16e	.	.	.
16c#	.	.	4AA
16e	.	.	.
16a	.	.	.
16e	.	.	.
16f#	.	.	4D
16d	.	.	.
16f#	.	.	.
16b	.	.	.
16g#	.	.	4E
16e	.	.	.
16g#	.	.	.
16cc#	.	.	.
=87	=87	=87	=87
16a	1r	1r	4F#
16f#	.	.	.
16a	.	.	.
16dd	.	.	.
16b	.	.	4G#
16g#	.	.	.
16b	.	.	.
16ee	.	.	.
16cc#	.	.	4AA
16a	.	.	.
16cc#	.	.	.
16ff#	.	.	.
16dd	.	.	4BB
16b	.	.	.
16dd	.	.	.
16gg#	.	.	.
=88	=88	=88	=88
16ee	1r	1r	4C#
16cc#	.	.	.
16ee	.	.	.
16aa	.	.	.
16ff#	.	.	4D
16dd	.	.	.
16ff#	.	.	.
16bb	.	.	.
16gg#	.	.	8E
16ee	.	.	.
16aa	.	.	8C#
16cc#	.	.	.
16b	.	.	8D
16aa	.	.	.
16gg#	.	.	8E
16b	.	.	.
=89	=89	=89	=89
4a	1r	1r	4AA
4c#	.	.	2A
4d	.	.	.
4e	.	.	[4G
=90	=90	=90	=90
4A	1r	4r	4G]
4a	.	4.a	4F#
4.b	.	.	2GG
.	.	8f#	.
.	.	[4g	.
8ee	.	.	.
=91	=91	=91	=91
8cc#	1r	4g]	4GG
8a	.	.	.
2dd	.	4f#	8F#
.	.	.	8D
.	.	2e	8G
.	.	.	16F#
.	.	.	16G
4cc#	.	.	8E
.	.	.	8A
=92	=92	=92	=92
4dd	1r	4f#	8F#
.	.	.	8D
2aa	.	4a	4F#
.	.	2b	4G
[4gg	.	.	4GG
=93	=93	=93	=93
4gg]	1r	8cc#	4AA
.	.	8a	.
4ff 4dd	.	4g#	4GG#
2ff 2dd	.	2a	[2AA
=94	=94	=94	=94
2ee 2dd	1r	2a	1AA_
2ee 2cc#	.	2a	.
=95	=95	=95	=95
2ee 2cc#	1r	2g	1AA]
16.cc# 16.ee	.	4g	.
32dd	.	.	.
32cc#	.	.	.
32b	.	.	.
32a	.	.	.
32g	.	.	.
32f#	.	4r	.
32e	.	.	.
32d	.	.	.
32e	.	.	.
32f#	.	.	.
32G	.	.	.
32A	.	.	.
32f#	.	.	.
=96	=96	=96	=96
2e	1r	2A	2AA
2a 2f#	.	2d	2DD
==	==	==	==
*-	*-	*-	*-
!!!RWG1: This file contains only pitch and duration data.
!!!RWG2: Transposing instruments are not transposed.
!!!RWG3: Spines may have incompatible meters.
!!!RWG4: Durations of rests and tied notes may be interpreted.
!!!RWG: Key is interpreted using the Humdrum key tool.
!!!AFT: stage1
!!!END: 1997/04/15
!!format changes:
!!content changes:
!!public access: complete
!!!KEY: 50462230
!!!EMD: Converted from MuseData to Humdrum Dec 16, 2000, by Andreas Kornstaedt using muse2kern.
